X:1
T:Jspdspolska frn Boda
R:Polska
Z:2007-09-05
O:Boda, Dalarna
M:3/4
L:1/8
K:D
f2 fe dc|B2 BA GF|A,A, B,B, CC|D2 DF AA|
f2 fe dc|B2 BA GE|A,A, B,B, CC|D2 D4:|
ag fe dc|B2 b4|gf/2g/2 ag ec|df ab a2|
ag fe dc|B2 b4|gf/2g/2 ag ec|d2 d4:|
